Origami/22x22/apps/7kaa.svg

<svg width="22" height="22" version="1" xmlns="http://www.w3.org/2000/svg">
 <path d="M 8.5526408,1 9.0018592,3.7011719 6.4960002,1.5 7.2596721,3.9121094 5.3905314,2 5.8026408,4.5 3.9960002,3 4.7499064,5.6914062 1.9960002,4 3.3163127,6.7851562 0.9960002,6 c 0.047362,0.1705541 2,7 2,7 H 10.996 L 10.998,7.0078125 10.999906,13 h 8 c 0,0 1.95264,-6.8294459 2,-7 L 18.679594,6.7851562 19.999906,4 17.246,5.6914062 17.999906,3 16.193266,4.5 16.605375,2 14.736234,3.9121094 15.499906,1.5 12.992094,3.7011719 13.443266,1 12.15225,2.1855469 11.954984,2.953125 V 2.5117188 L 10.999906,1 v 0.017578 l -0.002,0.00195 -0.002,-0.00195 V 1 L 10.038969,2.5117188 V 2.953125 L 9.8436562,2.1855469 Z" style="fill:#4f4f4f"/>
 <path d="m8.5526406 1 0.0976562 0.5898438 1.1933594 1.0957031 0.1953118 0.7675781v-0.4414062l0.957032-1.5117188v0.017578l2e-3 0.00195 0.0019-0.00195v-0.017578l0.955078 1.5117188v0.4414062l0.197272-0.7675781 1.191406-1.0957031 0.099609-0.5898438-1.291015 1.1855469-0.197266 0.7675781v-0.4414062l-0.955078-1.5117188v0.017578l-2e-3 0.00195-2e-3 -0.00195v-0.017578l-0.956938 1.5117188v0.4414062l-0.1953118-0.7675781zm-2.0566406 0.5 0.21875 0.6933594 2.2871092 2.0078125-0.0976561-0.5859375zm9.003906 0-2.410156 2.1152344-0.09766 0.5859375 2.289062-2.0078125zm-10.109375 0.5 0.0996094 0.6015625 1.7695312 1.8105469-0.234375-0.7402344zm11.214844 0-1.634766 1.671875-0.234375 0.7402344 1.769531-1.8105469zm-12.609375 1 0.1816406 0.6523438 1.625 1.3476562-0.0957032-0.5800781zm14.003906 0-1.710938 1.4199219-0.095703 0.5800781l1.625-1.3476562zm-16.003906 1 0.3339843 0.7050781 2.4199219 1.4863281-0.1699219-0.6035156zm18.003906 0-2.583984 1.5878906-0.169922 0.6035156 2.419922-1.4863281zm-19.003906 2c0.00374 0.013469 0.1325977 0.46285 0.1582031 0.5527344l2.1621093 0.7324218-0.2832031-0.5957031zm20.003906 0-2.037109 0.6894531-0.283203 0.5957031 2.162109-0.7324218c0.025605-0.0898844 0.154463-0.5392653 0.158203-0.5527344z" style="fill:#ffffff;opacity:.1"/>
 <rect x="1" y="13.5" width="20" height="8" rx="2" ry="2" style="opacity:.2"/>
 <rect x="1" y="13" width="20" height="8" rx="2" ry="2" style="fill:#4f4f4f"/>
 <path d="m5.0003912 9.999758h4.999515c-2.283929 2.388121-3 3.90013-3 7" style="fill:none;stroke-linecap:round;stroke-linejoin:round;stroke-width:2;stroke:#ffb73c"/>
 <path d="m13.000149 9.999758v7" style="fill:none;stroke-linecap:round;stroke-linejoin:round;stroke-width:2;stroke:#ffb73c"/>
 <path d="m16.999906 9.999758-3.999758 4.499999" style="fill:none;stroke-linecap:round;stroke-linejoin:round;stroke-width:2;stroke:#ffb73c"/>
 <path d="m16.999906 16.999758-3.999758-3.500001" style="fill:none;stroke-linecap:round;stroke-linejoin:round;stroke-width:2;stroke:#ffb73c"/>
 <path transform="matrix(.38357062 0 0 .38754554 1.1913641 -.05018208)" d="m25.571673 22.062393-10.428328-18.062393 20.856655-6e-7z" style="opacity:.2"/>
 <path transform="matrix(.38357062 0 0 .38754554 1.1913641 -.55018208)" d="m25.571673 22.062393-10.428328-18.062393 20.856655-6e-7z" style="fill:#f43e3e"/>
 <path d="m12.984281 9.486419a1.0001 1.0001 0 0 0 -0.984375 1.013672v3.349609a1.0001 1.0001 0 0 0 0 0.279297v0.740235a1.0001 1.0001 0 0 0 0 0.265625v2.365234a1.0001 1.0001 0 1 0 2 0v-1.296875l2.341797 2.048828a1.0001 1.0001 0 1 0 1.316406 -1.503906l-2.742187-2.398438 2.832031-3.185547a1.0002763 1.0002763 0 1 0 -1.496094 -1.328124l-2.251953 2.533203v-1.869141a1.0001 1.0001 0 0 0 -1.015625 -1.013672zm-7.9843748 0.013672a1.0001 1.0001 0 1 0 0 2h3.0742188c-1.296062 1.775396-2.0742188 3.521636-2.0742188 6a1.0001 1.0001 0 1 0 2 0c0-2.94587 0.5122891-3.99739 2.7226558-6.308594a1.0001 1.0001 0 0 0 -0.7226558 -1.691406z" style="opacity:.2"/>
 <path d="m16.999906 16.999758-3.999758-3.500001m3.999758-3.499999-3.999758 4.499999m1e-6 -4.499999v7m-7.9997578-7h4.999515c-2.283929 2.388121-3 3.90013-3 7" style="fill:none;stroke-linecap:round;stroke-linejoin:round;stroke-width:2;stroke:#ffb73c"/>
 <path d="m6.9999062 1 0.2851562 0.5h7.4296876l0.285156-0.5z" style="fill:#ffffff;opacity:.1"/>
</svg>

<svg xmlns="http://www.w3.org/2000/svg" width="22" height="22" version="1">
 <path style="fill:#4f4f4f" d="M 8.5526408,1 9.0018592,3.7011719 6.4960002,1.5 7.2596721,3.9121094 5.3905314,2 5.8026408,4.5 3.9960002,3 4.7499064,5.6914062 1.9960002,4 3.3163127,6.7851562 0.9960002,6 c 0.047362,0.1705541 2,7 2,7 H 10.996 L 10.998,7.0078125 10.999906,13 h 8 c 0,0 1.95264,-6.8294459 2,-7 L 18.679594,6.7851562 19.999906,4 17.246,5.6914062 17.999906,3 16.193266,4.5 16.605375,2 14.736234,3.9121094 15.499906,1.5 12.992094,3.7011719 13.443266,1 12.15225,2.1855469 11.954984,2.953125 V 2.5117188 L 10.999906,1 v 0.017578 l -0.002,0.00195 -0.002,-0.00195 V 1 L 10.038969,2.5117188 V 2.953125 L 9.8436562,2.1855469 Z"/>
 <path style="opacity:0.1;fill:#ffffff" d="M 8.5526406,1 8.6502968,1.5898438 9.8436562,2.6855469 10.038968,3.453125 V 3.0117188 L 10.996,1.5 v 0.017578 l 0.002,0.00195 0.0019,-0.00195 V 1.5 l 0.955078,1.5117188 V 3.453125 L 12.15225,2.6855469 13.343656,1.5898438 13.443265,1 12.15225,2.1855469 11.954984,2.953125 V 2.5117188 L 10.999906,1 v 0.017578 l -0.002,0.00195 -0.002,-0.00195 V 1 L 10.038968,2.5117188 V 2.953125 L 9.8436562,2.1855469 Z M 6.496,1.5 6.71475,2.1933594 9.0018592,4.2011719 8.9042031,3.6152344 Z m 9.003906,0 -2.410156,2.1152344 -0.09766,0.5859375 2.289062,-2.0078125 z M 5.3905312,2 5.4901406,2.6015625 7.2596718,4.4121094 7.0252968,3.671875 Z M 16.605375,2 14.970609,3.671875 14.736234,4.4121094 16.505765,2.6015625 Z M 3.996,3 4.1776406,3.6523438 5.8026406,5 5.7069374,4.4199219 Z M 17.999906,3 16.288968,4.4199219 16.193265,5 l 1.625,-1.3476562 z M 1.996,4 2.3299843,4.7050781 4.7499062,6.1914062 4.5799843,5.5878906 Z M 19.999906,4 17.415922,5.5878906 17.246,6.1914062 19.665922,4.7050781 Z M 0.996,6 C 0.99974,6.013469 1.1285977,6.46285 1.1542031,6.5527344 L 3.3163124,7.2851562 3.0331093,6.6894531 Z M 20.999906,6 18.962797,6.6894531 18.679594,7.2851562 20.841703,6.5527344 C 20.867308,6.46285 20.996166,6.0134691 20.999906,6 Z"/>
 <rect style="opacity:0.2" width="20" height="8" x="1" y="13.5" rx="2" ry="2"/>
 <rect style="fill:#4f4f4f" width="20" height="8" x="1" y="13" rx="2" ry="2"/>
 <path style="fill:none;stroke:#ffb73c;stroke-width:2;stroke-linecap:round;stroke-linejoin:round" d="m 5.0003912,9.999758 h 4.999515 c -2.283929,2.388121 -3,3.90013 -3,7"/>
 <path style="fill:none;stroke:#ffb73c;stroke-width:2;stroke-linecap:round;stroke-linejoin:round" d="m 13.000149,9.999758 v 7"/>
 <path style="fill:none;stroke:#ffb73c;stroke-width:2;stroke-linecap:round;stroke-linejoin:round" d="m 16.999906,9.999758 -3.999758,4.499999"/>
 <path style="fill:none;stroke:#ffb73c;stroke-width:2;stroke-linecap:round;stroke-linejoin:round" d="M 16.999906,16.999758 13.000148,13.499757"/>
 <path style="opacity:0.2" d="M 25.571673,22.062393 15.143345,4.0000003 36,3.9999997 Z" transform="matrix(0.38357062,0,0,0.38754554,1.1913641,-0.05018208)"/>
 <path style="fill:#f43e3e" d="M 25.571673,22.062393 15.143345,4.0000003 36,3.9999997 Z" transform="matrix(0.38357062,0,0,0.38754554,1.1913641,-0.55018208)"/>
 <path style="opacity:0.2" d="m 12.984281,9.486419 a 1.0001,1.0001 0 0 0 -0.984375,1.013672 V 13.8497 a 1.0001,1.0001 0 0 0 0,0.279297 v 0.740235 a 1.0001,1.0001 0 0 0 0,0.265625 v 2.365234 a 1.0001,1.0001 0 1 0 2,0 v -1.296875 l 2.341797,2.048828 a 1.0001,1.0001 0 1 0 1.316406,-1.503906 L 14.915922,14.3497 17.747953,11.164153 A 1.0002763,1.0002763 0 1 0 16.251859,9.836029 l -2.251953,2.533203 V 10.500091 A 1.0001,1.0001 0 0 0 12.984281,9.486419 Z M 4.9999062,9.500091 a 1.0001,1.0001 0 1 0 0,2 H 8.074125 c -1.296062,1.775396 -2.0742188,3.521636 -2.0742188,6 a 1.0001,1.0001 0 1 0 2,0 c 0,-2.94587 0.5122891,-3.99739 2.7226558,-6.308594 A 1.0001,1.0001 0 0 0 9.9999062,9.500091 Z"/>
 <path style="fill:none;stroke:#ffb73c;stroke-width:2;stroke-linecap:round;stroke-linejoin:round" d="m 16.999906,16.999758 -3.999758,-3.500001 m 3.999758,-3.499999 -3.999758,4.499999 m 1e-6,-4.499999 v 7 m -7.9997578,-7 h 4.999515 c -2.283929,2.388121 -3,3.90013 -3,7"/>
 <path style="opacity:0.1;fill:#ffffff" d="M 6.9999062,1 7.2850624,1.5 H 14.71475 L 14.999906,1 Z"/>
</svg>
